icons/fill-new-people-double.svg

<svg xmlns="http://www.w3.org/2000/svg" width="32px" height="32px" viewBox="0 0 32 32" version="1.1">
    <title>fill-new-people-double</title>
    <g id="fill-new-people-double" stroke-width="1" fill-rule="evenodd">
        <path d="M20,3 C23.8659932,3 27,6.13400675 27,10 C27,13.8659932 23.8659932,17 20,17 C19.5852818,17 19.178987,16.9639352 18.7840807,16.8947707 C20.7504954,15.2439867 22,12.7679121 22,10 C22,7.23208794 20.7504954,4.75601332 18.7847737,3.10506351 C19.178987,3.03606484 19.5852818,3 20,3 Z M13,3 C16.8659932,3 20,6.13400675 20,10 C20,13.8659932 16.8659932,17 13,17 C9.13400675,17 6,13.8659932 6,10 C6,6.13400675 9.13400675,3 13,3 Z M18,19 C20.7614237,19 23,21.2385763 23,24 L23,28 C23,28.5522847 22.5522847,29 22,29 L4,29 C3.44771525,29 3,28.5522847 3,28 L3,24 C3,21.2385763 5.23857625,19 8,19 L18,19 Z M22.8970207,18.9980781 L25,19 C27.7614237,19 30,21.2385763 30,24 L30,28 C30,28.5522847 29.5522847,29 29,29 L25,29 L25,24 C25,22.040324 24.1947211,20.2687309 22.8970207,18.9980781 Z" id="&#24418;&#29366;" />
    </g>
</svg>

<svg xmlns="http://www.w3.org/2000/svg" viewBox="0 0 32 32"><path fill="currentColor" d="M20 3a7 7 0 1 1-1.216 13.895A8.979 8.979 0 0 0 22 10a8.98 8.98 0 0 0-3.215-6.895C19.179 3.036 19.585 3 20 3m-7 0a7 7 0 1 1 0 14 7 7 0 0 1 0-14m5 16a5 5 0 0 1 5 5v4a1 1 0 0 1-1 1H4a1 1 0 0 1-1-1v-4a5 5 0 0 1 5-5zm4.897-.002L25 19a5 5 0 0 1 5 5v4a1 1 0 0 1-1 1h-4v-5c0-1.96-.805-3.731-2.103-5.002"/></svg>
